X:1
T:March of the Tin Soldiers
T:March of the Tin Soldiers
T:by Theo Bonheur
%%score { 1 | 2 }
L:1/8
Q:1/4=90
M:4/4
K:C
V:1 treble nm="Piano" snm="Pno."
V:2 bass 
V:1
S!mf!"^Moderato" !>!G>Ec>B !>!A>Fc>A | (!>!G>AG>F E4) |!<(! !>!D>EF>G A>GA>B!<)! | %3
!f! c2 !>!c>e !>!G4 |!mf!!mf! !>!G>Ec>B !>!A>Fc>A | (!>!G>AG>F E4) |!<(! !>!D>EF>A G>^FG>e!<)! | %7
!f! !>![Fd]4 !>![Ec]4!fine! :|[K:G]!f! !>![GB]2 !>![GB]2 !>![Bd]2 !>![Bd]2 | !>![Bg]>fe>d !>!c4 | %10
 !>![Ac]2 !>![Ac]2 !>![Ac]2 !>![Ac]2 | !>![Bf]>ed>c !>!B4 | !>![GB]2 !>![GB]2 !>![Bd]2 !>![Bd]2 | %13
 !>![Bg]>f e>d !>!c4 | !>!c>dc>B !>!A>Bc>A | !>!e2 !>!d2 !>!G4!D.S.! |] %16
V:2
 C,2 [E,G,]2 C,2 [F,A,]2 | C,2 [E,G,]2 C,2 [E,G,]2 | B,,2 [F,G,]2 G,,2 [F,G,]2 | %3
 C,2 [E,G,]2 [E,G,]2 [E,G,]2 | C,2 [E,G,]2 C,2 [F,A,]2 | C,2 [E,G,]2 [E,G,]2 [E,G,]2 | %6
 B,,2 [A,,D,]2 G,,2 [C,E,]2 | z3/2 !>!G,,<!>!A,,!>!B,,/ !>!C,4 :|[K:G] G,2 [B,D]2 G,2 [B,D]2 | %9
 G,2 [B,D]2 A,2 [CD]2 | D,2 [F,C]2 D,2 [F,C]2 | D,2 [F,C]2 G,2 [B,D]2 | G,2 [B,D]2 G,2 [B,D]2 | %13
 G,2 [B,D]2 C,2 [E,A,]2 | C,2 [E,A,]2 C,2 [E,A,]2 | D,2 [F,C]2 [G,B,]4 |] %16

